!!!!SEGMENT: Ric2002-Consolator_captivorum.krn
!!!id: Ric2002
!!!AGN: Motet
!!!SCT: Elzinga (1999)
!!!voices: 3
!!!COM: Jean Richafort
!!!OTL: Consolator captivorum
**kern	**kern	**kern
*part3	*part2	*part1
*staff3	*staff2	*staff1
*I"Bassus	*I"Altus	*I"Superius
*I'B	*I'A	*I'S
*clefF4	*clefGv2	*clefGv2
*k[]	*k[]	*k[]
*C:	*C:	*C:
*M2/1	*M2/1	*M2/1
*met(C|)	*met(C|)	*met(C|)
!!section: Prima pars: Consolator captivorum
!!!OMD: Prima pars: Consolator captivorum
=1	=1	=1
!	!	!LO:TX:a:t=Tenor not extant
1D	0r	0r
1D	.	.
=2	=2	=2
1E	0r	0r
1D	.	.
=3	=3	=3
2.F	1A	0r
4G	.	.
4A	1A	.
4B-i	.	.
[2A	.	.
=4	=4	=4
2A]	1B	0r
2G	.	.
2F	1A	.
2D	.	.
=5	=5	=5
1A	2.c	1e
.	4d	.
1r	4e	1e
.	4f	.
.	[2e	.
=6	=6	=6
1r	2e]	1f
.	2d	.
1AA	1c	1e
=7	=7	=7
1AA	2B	0r
.	1A	.
1BB	.	.
.	2G#i	.
=8	=8	=8
1AA	2.A	1e
.	4B	.
1r	4c	1e
.	4d	.
.	[2e	.
=9	=9	=9
0r	4e]	1f
.	4d	.
.	1d	.
.	.	1e
.	2c#i	.
=10	=10	=10
1A	0d	0r
1A	.	.
=11	=11	=11
1B	0r	1r
[1A	.	1e
=12	=12	=12
2A]	0r	1e
2G	.	.
2F	.	1f
4E	.	.
4D	.	.
=13	=13	=13
2.C	0r	1.e
4D	.	.
2E	.	.
2F	.	2d
=14	=14	=14
2E	0r	2c
4D	.	4B
4C	.	4A
1BB	.	2G
.	.	4A
.	.	4G
=15	=15	=15
[0AA	1e	0A
.	1e	.
=16	=16	=16
0AA]	1f	0r
.	[1e	.
=17	=17	=17
0r	2e]	1r
.	2d	.
.	2c	1e
.	4B	.
.	4A	.
=18	=18	=18
1r	2B	1e
.	2c	.
1A	1F	1f
=19	=19	=19
1A	0r	1.e
1B	.	.
.	.	2d
=20	=20	=20
1.A	1e	2c
.	.	2A
.	1e	2B
2G	.	[2e
=21	=21	=21
2F	1f	4e]
.	.	4d
2D	.	2.d
1E	[1e	.
.	.	4c
.	.	4c
.	.	4B
=22	=22	=22
1AA	2e]	2.c
.	2d	.
.	.	4B
1r	2c	4A
.	.	4G
.	2A	2A
=23	=23	=23
2r	1B	1E
2E	.	.
4F	2r	1r
4E	.	.
[2A	2A	.
=24	=24	=24
2A]	2B	1e
2G	2B	.
2.A	1A	1e
4G	.	.
=25	=25	=25
4F	4D	1f
4E	4E	.
1D	4F	.
.	4G	.
.	4A	1e
.	4B	.
2C	[2c	.
=26	=26	=26
1F	4c]	2c
.	4B	.
.	1A	2d
1E	.	4e
.	.	4d
.	2G	4c
.	.	4B
=27	=27	=27
0AA	1F	1c
.	1E	2r
.	.	2A
=28	=28	=28
1r	0r	2A
.	.	2B
1AA	.	4c
.	.	4B
.	.	4A
.	.	4G
=29	=29	=29
2r	2A	1F
2D	2A	.
2D	2B	1r
2E	[2c	.
=30	=30	=30
2.F	4c]	1r
.	4B	.
.	2A	.
4D	.	.
2E	2G	2r
[2F	[2A	2c
=31	=31	=31
2F]	2A]	2d
2E	1G	2e
1D	.	1f
.	2F	.
=32	=32	=32
1C	1G	2.e
.	.	4d
1r	2d	4c
.	.	8BL
.	.	8AJ
.	2d	4G
.	.	4F
=33	=33	=33
2r	2e	2G
2D	1f	2A
2D	.	1B
2E	4e	.
.	4d	.
=34	=34	=34
2.F	2c	1A
.	4A	.
4D	4B	.
2E	4c	1r
.	4A	.
[2F	[2d	.
=35	=35	=35
2F]	2d]	1r
2E	1c	.
1D	.	2r
.	2B	[2f
=36	=36	=36
1C	2c	2f]
.	2c	2e
1r	2d	2f
.	[2f	2F
=37	=37	=37
1r	2f]	2r
.	2e	2c
2r	2e	2d
2F	[2d	[2f
=38	=38	=38
2G	2d]	2f]
2A	2c	1e
2F	4d	.
.	4e	.
4E	4f	[2d
4D	4d	.
=39	=39	=39
2A	2e	2d]
2A	2A	2c#i
1D	2F	1d
.	4E	.
.	4D	.
=40	=40	=40
2r	2A	0r
2D	2A	.
2D	1D	.
2F	.	.
=41	=41	=41
1E	0r	0r
2C	.	.
2C	.	.
=42	=42	=42
2D	0r	0r
2.E	.	.
4D	.	.
2C	.	.
=43	=43	=43
1BB	1r	2r
.	.	2d
[1AA	2r	2f
.	2A	2f
=44	=44	=44
1AA]	2A	1e
.	2c	.
1r	2B	1d
.	2G	.
=45	=45	=45
2r	2A	2c
2D	2.B	2.d
2D	.	.
.	4A	4c
2F	[2A	4B
.	.	4A
=46	=46	=46
1E	2A]	1B
.	2G#i	.
2C	[1A	[1A
[2D	.	.
=47	=47	=47
2D]	1A]	1A]
4C	.	.
4BB	.	.
2AA	1r	1r
[2A	.	.
=48	=48	=48
2A]	0r	0r
2G	.	.
2E	.	.
[2F	.	.
=49	=49	=49
4F]	0r	0r
4E	.	.
1E	.	.
2D	.	.
=50	=50	=50
1E	1r	1r
1C	1c	1e
=51	=51	=51
2C	2c	2e
1C	1c	1e
2C	2c	2e
=52	=52	=52
2D	2B	2d
2E	2B	2B
1AA	1A	2.c
.	.	4d
=53	=53	=53
1A	1c	2e
.	.	2.f
2G	2B	.
.	.	4e
2E	2c	[2e
=54	=54	=54
1F	1A	2e]
.	.	2d
[1E	[1B	[1e
=55	=55	=55
1E]	1B]	0e_
1r	1r	.
=56	=56	=56
2r	0r	1e]
2AA	.	.
2.C	.	1r
4C	.	.
=57	=57	=57
2C	0r	1r
2C	.	.
2D	.	2r
2E	.	2G
=58	=58	=58
0F	0r	2.c
.	.	4c
.	.	2c
.	.	2c
=59	=59	=59
2r	2G	2d
2C	2.c	2e
2.F	.	[1f
.	4c	.
.	2c	.
4F	.	.
=60	=60	=60
2F	2c	1f]
2F	2d	.
2G	2e	2r
2A	[2f	2c
=61	=61	=61
2.B-i	2f]	2.d
.	4e	.
4A	4d	4c
2G	2e	2B
2F	[2d	[2A
=62	=62	=62
1E	2d]	2A]
.	2c#i	2G
[1D	1d	1A
=63	=63	=63
1D]	2r	2r
.	2A	2D
1C	1c	1G
=64	=64	=64
1GG	2d	2G
.	2e	2G
2r	2f	2A
2GG	2d	2B
=65	=65	=65
1C	0e	2.c
.	.	4B
2C	.	2A
2C	.	2G
=66	=66	=66
2D	2r	4F
.	.	4E
2E	2G	1e
2.F	1c	.
.	.	2c
4E	.	.
=67	=67	=67
2D	2B	2d
2C	2A	2.e
1BB	2A	.
.	.	4d
.	2G	[2d
=68	=68	=68
1AA	1A	2d]
.	.	2c#i
[1Dl	[1Al	[1dl
=	=	=
00D]	00A]	00d]
=||	=||	=||
*M2/1	*M2/1	*M2/1
*met(C|)	*met(C|)	*met(C|)
!!section: Secunda pars: Modo in gallis
!!!OMD: Secunda pars: Modo in gallis
0r	0r	1r
.	.	1c
=69	=69	=69
0r	0r	2c
.	.	2c
.	.	1d
=70	=70	=70
1F	1r	1A
2F	1c	1r
2F	.	.
=71	=71	=71
1E	2c	0r
.	2c	.
1D	1d	.
=72	=72	=72
1F	1A	1c
2E	1r	2c
[2F	.	2c
=73	=73	=73
4F]	0r	1d
4E	.	.
4D	.	.
4C	.	.
1D	.	1A
=74	=74	=74
1C	1c	1.e
1r	2c	.
.	2c	4d
.	.	4c
=75	=75	=75
0r	2.d	4B
.	.	4A
.	.	4B
.	4c	4c
.	4B	2d
.	4A	.
.	[2B	2e
=76	=76	=76
0r	4B]	2c
.	4A	.
.	1A	4B
.	.	4A
.	.	2B
.	2G	[2c
=77	=77	=77
1F	1A	4c]
.	.	4B
.	.	4A
.	.	4G
2F	2r	4F
.	.	4E
2F	2f	[2A
=78	=78	=78
1G	2e	2A]
.	1d	2G
1D	.	2A
.	4c	[2f
.	4B	.
=79	=79	=79
1F	2A	2f]
.	1c	4e
.	.	4d
1F	.	2c
.	4B	2d
.	4A	.
=80	=80	=80
0E	2G	1e
.	2A	.
.	1B	[1e
=81	=81	=81
0AA	1.e	2e]
.	.	2d
.	.	2c
.	2d	2B
=82	=82	=82
1r	2c	2A
.	2B	2G
[1A	2A	2F
.	2G	2E
=83	=83	=83
2A]	2F	1D
2G	2E	.
2F	1D	2.d
2E	.	.
.	.	4c
=84	=84	=84
2D	0A	2d
2C	.	2.e
2D	.	.
.	.	4d
4C	.	4d
4BB	.	8cL
.	.	8BJ
=85	=85	=85
[0AA	1r	2c
.	.	1e
.	[1e	.
.	.	2d
=86	=86	=86
0AA]	2e]	2c
.	2d	2B
.	2c	2A
.	2B	2G
=87	=87	=87
1.A	2A	2F
.	2G	2E
.	2F	1D
2G	2E	.
=88	=88	=88
2F	1D	2.d
2E	.	.
.	.	4c
2D	[1A	2d
2C	.	[2e
=89	=89	=89
2D	0A_	4e]
.	.	4d
4C	.	1d
4BB	.	.
1AA	.	.
.	.	2c#i
=90	=90	=90
0D	1A]	0d
.	2r	.
.	2A	.
=91	=91	=91
2r	2B	1r
2A	2c	.
2G	1d	2r
2F	.	2A
=92	=92	=92
1E	1G	2B
.	.	2c
1D	1r	1d
=93	=93	=93
1G	1r	2B
.	.	1e
1F	2r	.
.	2A	2d
=94	=94	=94
1E	2B	1e
.	2c	.
1r	1d	1r
=95	=95	=95
0r	1c	0r
.	2B	.
.	[2e	.
=96	=96	=96
0r	4e]	0r
.	4d	.
.	2c	.
.	1B	.
=97	=97	=97
2r	0A	1r
2D	.	.
2C	.	2r
2D	.	2d
=98	=98	=98
1F	2r	2c
.	2A	2d
2E	2G	2e
2D	2A	[2f
=99	=99	=99
1A	1.c	4f]
.	.	4e
.	.	4e
.	.	4d
1AA	.	[1e
.	4B	.
.	4A	.
=100	=100	=100
1r	2B	0e]
.	2.A	.
2r	.	.
.	4G	.
2AA	4E	.
.	4F	.
=101	=101	=101
2GG	2G	0r
2AA	1F	.
1C	.	.
.	2E	.
=102	=102	=102
2r	1F	1r
2D	.	.
2C	1r	2r
2D	.	2d
=103	=103	=103
1F	0r	2c
.	.	2d
2E	.	2e
2D	.	[2f
=104	=104	=104
1A	1r	4f]
.	.	4e
.	.	1d
2r	2r	.
2AA	2A	2c#i
=105	=105	=105
2.D	2.A	1d
4C	4A	.
2.F	2.A	1r
4E	4G	.
=106	=106	=106
2D	2A	1r
2D	2B	.
1C	1c	2r
.	.	2A
=107	=107	=107
0r	0r	2.A
.	.	4A
.	.	2.A
.	.	4G
=108	=108	=108
2r	1r	2A
2F	.	2B
2G	2r	1c
2A	2c	.
=109	=109	=109
2D	2d	1r
1A	2e	.
.	4A	[1c
.	4B	.
4G	4c	.
4F	4d	.
=110	=110	=110
2E	2e	2c]
2D	2.f	2d
1r	.	1e
.	4e	.
.	[2e	.
=111	=111	=111
2r	2e]	1f
2F	2d	.
2G	1e	2r
2A	.	2c
=112	=112	=112
2D	0r	2d
1A	.	2e
.	.	4A
.	.	4B
4G	.	4c
4F	.	4d
=113	=113	=113
2E	0r	2e
2D	.	2.f
1r	.	.
.	.	4e
.	.	[2e
=114	=114	=114
1r	2r	2e]
.	2A	2d
2r	2B	1e
2AA	2c	.
=115	=115	=115
2BB	2.d	1r
2C	.	.
.	4c	.
1D	2B	2r
.	[2A	2A
=116	=116	=116
1BB	4A]	2B
.	4G	.
.	2.G	1d
2AA	.	.
.	4F	.
[2A	4F	2c
.	8EL	.
.	8FJ	.
=117	=117	=117
4A]	4G	2.B
4G	4A	.
1G	4B	.
.	4c	8AL
.	.	8GJ
.	4d	2B
.	4e	.
2F	[2d	[2A
=118	=118	=118
2E	4d]	4A]
.	4c	4G
4D	1c	1G
4C	.	.
1D	.	.
.	2B	2F
=119	=119	=119
1C	2c	0G
.	2c	.
1r	2d	.
.	2e	.
=120	=120	=120
0r	4A	1r
.	4B	.
.	4c	.
.	4d	.
.	2e	2r
.	[2f	2c
=121	=121	=121
0r	4f]	1d
.	4e	.
.	1d	.
.	.	1e
.	2c#i	.
=122	=122	=122
2r	2d	4A
.	.	4B
2F	2A	4c
.	.	4d
2G	2r	2e
2A	2c	[2f
=123	=123	=123
2D	1d	4f]
.	.	4e
2F	.	1d
1E	1e	.
.	.	2c#i
=124	=124	=124
1D	1A	2d
.	.	2F
2r	1c	2G
2C	.	2E
=125	=125	=125
2D	1B	2F
2E	.	2G
2AA	1A	1E
2C	.	.
=126	=126	=126
1BB	2.F	2D
.	.	1d
.	4G	.
1AA	[1A	.
.	.	2c#i
=127	=127	=127
0BB	1A]	2d
.	.	1f
.	1G	.
.	.	4e
.	.	4d
=128	=128	=128
0AA;	0A;	0c#i;
=129	=129	=129
00Dl	00Al	00dl
==	==	==
*-	*-	*-
!!!system-decoration: [*]
!!!RDF**kern: i = editorial accidental
!!!RDF**kern: l = terminal long
!!!ENC: Benjamin Ory
!!!END: 2021/1/11
!!!EED: Benjamin Ory
!!!EEV: 2021/05/02
!!!YEC: Copyright 2021 Benjamin Ory, All Rights Reserved
!!!ONB: Translated from MusicXML on 2021/05/02
